!!!COM: Bach, Johann Sebastian
!!!OTL: Nun danket alle Gott
!!!ONM: No. 32
!!!OCL: Erk
!!!YOE: Riemenschneider, Albert
!!!OPR: 371 Harmonized Chorales and 69 Chorale Melodies with Figured Bass
!!!OPT: Bach Chorale Harmonizations
**kern	**kern	**kern	**kern
! bass	! tenor	! alto	! soprano
*M4/4	*M4/4	*M4/4	*M4/4
*A:	*A:	*A:	*A:
4AA	4c#	4a	4ee
=1	=1	=1	=1
8A	4c#	4a	4ee
8B	.	.	.
8c#	4c#	4a	4ee
8A	.	.	.
8D	4d	4a	4ff#
8E	.	.	.
8F#	4d	4a	4ff#
8D	.	.	.
=2	=2	=2	=2
2A;	2c#;	2a;	2ee;
4r	4r	4r	4r
4A	4f#	4a	4cc#
=3	=3	=3	=3
4G#	4e	4b	4dd
4A	4e	4a	4cc#
8E	4e	4g#	4b
8D	.	.	.
8C#	4e	4a	8.cc#
8AA	.	.	.
.	.	.	16dd
=4	=4	=4	=4
2E	8e	8a	2b
.	16d	8f#	.
.	16c#	.	.
.	4d	4g#	.
4AA;	4c#;	4e;	4a;
!! Repeat from beginning.
4AA	4c#	4a	4ee
=1	=1	=1	=1
8A	4c#	4a	4ee
8B	.	.	.
8c#	4c#	4a	4ee
8A	.	.	.
8D	4d	4a	4ff#
8E	.	.	.
8F#	4d	4a	4ff#
8D	.	.	.
=2	=2	=2	=2
2A;	2c#;	2a;	2ee;
4r	4r	4r	4r
4A	4f#	4a	4cc#
=3	=3	=3	=3
4G#	4e	4b	4dd
4A	4e	4a	4cc#
8E	4e	4g#	4b
8D	.	.	.
8C#	4e	4a	8.cc#
8AA	.	.	.
.	.	.	16dd
=4	=4	=4	=4
2E	8e	8a	2b
.	16d	8f#	.
.	16c#	.	.
.	4d	4g#	.
4AA;	4c#;	4e;	4a;
!! Continuing.
4E	8B	8g#	4b
.	8A	8f#	.
=5	=5	=5	=5
8E	8G#	4e	4b
8F#	8A	.	.
8G#	4B	4e	4b
8E	.	.	.
8AA	8B	4e	4cc#
8BB	16A	.	.
.	16G#	.	.
8C#	4A	4e	4cc#
8AA	.	.	.
=6	=6	=6	=6
2EE;	2G#;	2e;	2b;
4r	4r	4r	4r
4E	4e	4g#	4b
=7	=7	=7	=7
8A	4e	4a	8cc#
8B	.	.	8dd#
8c#	4e	4g#	4ee
8G#	.	.	.
8A	4c#	4f#	4ee
8F#	.	.	.
8B	4B	4f#	4dd#
8BB	.	.	.
=8	=8	=8	=8
2E;	2B;	2g#;	2ee;
4r	4r	4r	4r
4AA	4c#	4a	4ee
=9	=9	=9	=9
8D	4d	8a	4ff#
8C#	.	8b	.
8BB	4c#	4cc#	4ee
8AA#	.	.	.
8BB	4f#	8cc#	4dd
8D	.	[8b	.
8E	8gn	8b]	4cc#
8F#	8f#	8a#	.
=10	=10	=10	=10
2BB;	2f#;	2b;	2dd;
4r	4r	4r	4r
8C#	4e	4a	4cc#
8D	.	.	.
=11	=11	=11	=11
4E	4e	4g#	4b
8A	8e	4a	8.cc#
8F#	8f#	.	.
.	.	.	16dd
8D	8f#	4a	4.b
8BB	8d	.	.
8E	8.B	4g#	.
8EE	.	.	8a
.	16e	.	.
=12	=12	=12	=12
2.AA;	2.c#;	2.e;	2.a;
==	==	==	==
*-	*-	*-	*-
!!!CDT: 1685/3//-1750/7/28
!!!OCY: Deutschland
!!!AGN: chorale
!!!AST: Baroque
!!!AIN: vox
!!!YOY: 1941
!!!PPP: New York; London
!!!PPR: G. Schirmer
!!!ENC: David Huron
!!!EED: David Huron
!!!YEN: United States of America
!!!YER: 1992
!!!YEC: Copyright 1992 David Huron
!!!YEM: Rights to all derivative electronic formats reserved.
!!!YER: March 20, 1996
!!!AMT: simple quadruple
!!!EEV: 1.1
